X:215
T:The Foggy Dew
M:4/4
L:1/8
Q:120
K:G
EF |: G2 GA B2 gf |e2 dB A2 GA |BABG EGFA |1
G2 G3/2F/ G2 EF :|2G2 G3/2F/ G2 ef ||g2 gf e2 fg |agfe d2 Bd |
edef gfed |e6 EF |G2 GA B2 gf |e2 dB A2 GA |
BABG EGFA |G2 G3/2F/ G2 z2 ||
%  ABC2Win Version 2.1 06/07/2002
